X:323
T:Reel 323
M:4/4
K:Gmaj
L:1/8
dc|B>G (3GGG DGG2|FEFG cBAG|F>G (3FFF G>A (3ABc |dcdc Bcdc|B<GGF DGG2|BABA Bcdc|Bcde dcBA| (3EFE FA G2|BA|GABc d2ed|cAFA cAFA|GABc d2ed|cAFA cAFA|GABc d2 (3def |gabg afdB|GABc dcdc|BGAF G2|
